{
  "compressionlevel": -1,
  "height": 36,
  "width": 48,
  "infinite": false,
  "nextlayerid": 8,
  "nextobjectid": 20,
  "orientation": "orthogonal",
  "renderorder": "right-down",
  "tiledversion": "1.11.2",
  "tileheight": 64,
  "tilewidth": 64,
  "type": "map",
  "version": "1.10",
  "tilesets": [],
  "layers": [
    {
      "id": 1,
      "name": "Region",
      "type": "objectgroup",
      "visible": true,
      "opacity": 1,
      "x": 0,
      "y": 0,
      "objects": [
        {"id":1,"name":"region.main-road","type":"Region","x":256,"y":704,"width":2304,"height":448,"rotation":0,"visible":true,"properties":[{"name":"region_id","type":"string","value":"temple-road"}]},
        {"id":2,"name":"region.temple-yard","type":"Region","x":384,"y":448,"width":640,"height":256,"rotation":0,"visible":true,"properties":[{"name":"region_id","type":"string","value":"temple"}]}
      ]
    },
    {
      "id": 2,
      "name": "Collision",
      "type": "objectgroup",
      "visible": true,
      "opacity": 1,
      "x": 0,
      "y": 0,
      "objects": [
        {"id":3,"name":"collision.temple","type":"Collision","x":448,"y":320,"width":512,"height":192,"rotation":0,"visible":true},
        {"id":4,"name":"collision.house.left","type":"Collision","x":192,"y":960,"width":384,"height":320,"rotation":0,"visible":true},
        {"id":5,"name":"collision.house.right","type":"Collision","x":1088,"y":896,"width":448,"height":320,"rotation":0,"visible":true},
        {"id":6,"name":"collision.wall","type":"Collision","x":832,"y":704,"width":64,"height":192,"rotation":0,"visible":true}
      ]
    },
    {"id":3,"name":"Navigation","type":"objectgroup","visible":true,"opacity":1,"x":0,"y":0,"objects":[]},
    {
      "id": 4,
      "name": "Spawn",
      "type": "objectgroup",
      "visible": true,
      "opacity": 1,
      "x": 0,
      "y": 0,
      "objects": [
        {"id":7,"name":"spawn.town.default","type":"Spawn","x":640,"y":800,"width":0,"height":0,"point":true,"rotation":0,"visible":true,"properties":[{"name":"spawn_id","type":"string","value":"town.default"}]}
      ]
    },
    {
      "id": 5,
      "name": "NPC_Spawn",
      "type": "objectgroup",
      "visible": true,
      "opacity": 1,
      "x": 0,
      "y": 0,
      "objects": [
        {"id":8,"name":"npc.xiaobao.default","type":"NPCSpawn","x":800,"y":800,"width":0,"height":0,"point":true,"rotation":0,"visible":true,"properties":[{"name":"npc_id","type":"string","value":"xiaobao"},{"name":"schedule_id","type":"string","value":"xiaobao_default"}]}
      ]
    },
    {
      "id": 6,
      "name": "Interaction",
      "type": "objectgroup",
      "visible": true,
      "opacity": 1,
      "x": 0,
      "y": 0,
      "objects": [
        {"id":9,"name":"interaction.town.river-exit","type":"Interaction","x":2240,"y":960,"width":0,"height":0,"point":true,"rotation":0,"visible":true,"properties":[{"name":"interaction_id","type":"string","value":"interaction.town.river-exit"},{"name":"action","type":"string","value":"enter_region"},{"name":"target_region","type":"string","value":"river_gate"},{"name":"range","type":"int","value":100}]}
      ]
    },
    {"id":7,"name":"Trigger","type":"objectgroup","visible":true,"opacity":1,"x":0,"y":0,"objects":[]}
  ]
}
